X: 1
T: Leaving the Shepherd's Inn
C: Donald Ridley
R: strathspey
Z: 2009 John Chambers <jc:trillian.mit.edu>
S: PDF of unknown origin from George Meikle
M: C
L: 1/16
K: G
B3c \
| "G"d3e d3B A3G Bd3 | "C"g3a g3f e3d eg3 \
| "G"d3e d3B A3G Bd3 | "D7"f3g f3e (3d2c2B2 (3A2B2c2 |
y4 \
| "G"d3e d3B A3G Bd3 | "C"g3a g3f "A7"e3d eg3 \
| "D7"f3g f3d cA3 F3G | "Cm"A4 G4 "G"G4 |]
F3G \
| "D"A3B A3G FD3 FA3 | "G"d3e d3B AG3 Bd3 \
| "D"(3f2a2g2 (3f2e2d2 "A7"eg3 ^ce3 | "D"d3e f3e d3c Bc3 |
y4 \
| "G"d3e d3B A3G Bd3 | "C"g3a g3f "A7"e3d eg3 \
| "D7"f3g f3d cA3 F3G | "Cm"A4 G4 "G"G4 |]
